!!!!SEGMENT: pl-sa--367-a-viii-7_anonim--pastuszkowie-braciszkowie.krn
!!!cenid: 17xx:1721
!!!COM: Anonim
!!!COM-rismID: pe30004985
!!!CDT:
!!!CNT:
!!!OTL: Pastuszkowie braciszkowie
!!!PDT:
!!!AGN: Sacred
!!!SMS-siglum: PL-SA
!!!SMS-shelfmark: 367/A VIII 7
!!!SMS-shelfwork: W
!!!SMS-variant:
!!!SMS-altvar: sam tekst: zdj 5
!!!NIFC-rismSourceID: 1001038640
!!!NIFC-rismChildID: 1001038640
!!!NIFC-islandoraID: none
!!!URL-pdf-islandora:
!!!URL-scan: https://bc.bdsandomierz.pl/dlibra/publication/1671/edition/1639/content @EN{Scan in the Sandomierz Diocese Digital Library} @PL{Skany w portalu Cyfrowa Biblioteka Diecezjalna w Sandomierzu}
!!!ONB-nifc:
!!!AIN: 1 vox
!!!key:
**kern	**text	**text	**text	**text	**text	**text	**text	**text	**text	**text	**text	**text	**text
*Ivox	*	*	*	*	*	*	*	*	*	*	*	*	*
*I"[Canto]	*	*	*	*	*	*	*	*	*	*	*	*	*
*I'[C.]	*	*	*	*	*	*	*	*	*	*	*	*	*
*clefC1	*	*	*	*	*	*	*	*	*	*	*	*	*
*k[f#]	*	*	*	*	*	*	*	*	*	*	*	*	*
*G:	*	*	*	*	*	*	*	*	*	*	*	*	*
*M3/4	*	*	*	*	*	*	*	*	*	*	*	*	*
*>[A,B,B]	*	*	*	*	*	*	*	*	*	*	*	*	*
=1	=1	=1	=1	=1	=1	=1	=1	=1	=1	=1	=1	=1	=1
*>A	*	*	*	*	*	*	*	*	*	*	*	*	*
*2\right	*	*	*	*	*	*	*	*	*	*	*	*	*
2dd\	1 Pasz-	2 I	3 Wno-	4 Poc	5 Wi-	6 Cosz	7 Stach	8 Jo-	9 Bez	10 I	11 Maſz	12 A	13 Wes
4cc\	-tusz-	iam	-gi	dla	-dzisz	mu	Ba-	-zef	Ha-	Ma-	ty	u	moy
=2	=2	=2	=2	=2	=2	=2	=2	=2	=2	=2	=2	=2	=2
4dd\	-ko-	sły-	w po-	stra-	Ja-	da-	-ra-	stra-	-ła-	-ry-	Jur-	ſmoł-	Pa-
2g/	-wie	-ſzał	-le	-chu	-sne	-my	-na	-ry	-su	-a	-ku	-ki	-nie
=3	=3	=3	=3	=3	=3	=3	=3	=3	=3	=3	=3	=3	=3
2a\	bra-	tyl-	az	mi-	nie-	gdy	wią-	przyi-	by	co	twa-	są	na
4g/	-ciſz-	-kom	po	-ły	-za-	ni	-skę	-mie	nie-	po-	-rok	go-	co
=4	=4	=4	=4	=4	=4	=4	=4	=4	=4	=4	=4	=4	=4
4f#/	-ko-	dy-	wo-	bra-	-ga-	ma-	sia-	da-	-wcza-	-wi-	wor-	-moł-	sta-
(8e/L	.	.	.	.	.	.	.	.	.	.	.	.	.
8f#/J)	.	.	.	.	.	.	.	.	.	.	.	.	.
4d/	-wie	-szał	-le	-chu	-słe	-my	-na	-ry	-su	-ła	-ku	-ki	-nie
=5	=5	=5	=5	=5	=5	=5	=5	=5	=5	=5	=5	=5	=5
8dd\	prze	bom	po	a	sli-	ni	Waw-	Cho-	dla	wpie-	na	mle-	y-
8ee\	bog	sie	ia-	ty	-czne	pi-	-rzek	-ciasz	nas	-lu-	pie-	-ko	-le
4dd\	wſtay-	ſtra-	-gle-	Krzy-	cię-	-nię-	szper-	gru-	Pa-	-sze-	-ro-	ko-	ma-
4cc\	-cie	-chu	-ciu	-siu	-nie	-dzy	-ke	-szek	-nie	-cki	-gi	-zie	-my
=6	=6	=6	=6	=6	=6	=6	=6	=6	=6	=6	=6	=6	=6
8b\	po-	mi-	pstrym	y	y	boś-	y	y	ma-	y	ty	na	toc
8a\	-słu-	-ły	cię-	Ga-	pro-	-my	go-	Ja-	-ły	chu-	moy	tym	da-
4b\	-chay-	bra-	-lę-	-bry-	-mie-	ne-	-moł-	-błu-	Ja-	-ste-	dro-	mro-	-ie-
4g/	-cie	-chu	-ciu	-siu	-nie	-dzni	-kę	-szek	-nie	-czki	-gi	-zie	-my
=7	=7	=7	=7	=7	=7	=7	=7	=7	=7	=7	=7	=7	=7
4dd\	co	za-	poz-	trzod	swi-	Pa-	dla	dla	nie	dzie-	Bar-	prze-	do
2cc#X\	po-	-ta-	-na-	wa-	-ta-	-stu-	Pa-	sy-	czu-	-cią-	-to-	-da-	sie-
=8	=8	=8	=8	=8	=8	=8	=8	=8	=8	=8	=8	=8	=8
2.dd\	-wiem	-ił	-łem	-ruy	-ią	-si	-na	-na	-ło	-tko	-szu	-vi	-bie
=9!|:	=9!|:	=9!|:	=9!|:	=9!|:	=9!|:	=9!|:	=9!|:	=9!|:	=9!|:	=9!|:	=9!|:	=9!|:	=9!|:
*>B	*	*	*	*	*	*	*	*	*	*	*	*	*
8dd\	1 szły-	2 Por-	3 Was	4 Ty	5 A	6 Wes	7 Ja-	8 boc	9 Nie	10 trze-	11 biez	12 są	13 wzią-
8ee\	-szę	-wa-	mi-	ba-	ty	ty	-siek	to	tu-	-ba	do	y	-wſzy
4dd\	ia-	-łem	-li	-na-	ską-	Mać-	wziął	u	-pay	by	dom	ſer-	zso-
4cc\	-kies	sie	bra-	-chu	-des	-ku	sli-	ma-	no-	iey	po	-ki	-bą
=10	=10	=10	=10	=10	=10	=10	=10	=10	=10	=10	=10	=10	=10
(8b\L	gło-	zdo-	-cho-	mło-	chło-	Macz-	-we-	-łe-	-ga-	co	ma-	ca-	du-
8cc\J)	.	.	.	.	.	.	.	.	.	.	.	.	.
2dd\	-sy	-łu	-wie	-dy	-pie	-ku	-czek	-go	-mi	dac	-sło	-łe	-chy
=11	=11	=11	=11	=11	=11	=11	=11	=11	=11	=11	=11	=11	=11
8a\	az	wyr-	do-	by-	po-	Bar-	y	dzis	bo	by	po	niech	poy-
8b\	mi	-wał	-pie-	-cza	-wiedz	-tek	wi-	na-	wez-	da-	tort	sie	-dzie-
4a\	wſta-	z pło-	-ro	dla	gdzie	pas-	-sni	-ro-	-mieſz	-ła	y	dzie-	-my
4g/	-ią	-tu	w mey	przy-	tu	-ter-	ko-	-dzo-	pię-	o-	po	-cie	do
=12	=12	=12	=12	=12	=12	=12	=12	=12	=12	=12	=12	=12	=12
4f#/	wło-	ko-	gło-	-go-	w ſzo-	-nacz-	-szy-	-ne-	-scia-	-glą-	cia-	ma-	trzo-
8e/L	.	.	.	.	.	.	.	.	.	.	.	.	.
8f#/J	.	.	.	.	.	.	.	.	.	.	.	.	.
4d/	-sy	-łu	-wie	-dy	-pie	-ku	-czek	-go	-mi	-dac	-sto	-łe	-dy
!!LO:LB:g=original
=13	=13	=13	=13	=13	=13	=13	=13	=13	=13	=13	=13	=13	=13
4g\	1 na	2 bym	3 my-	4 na-	5 spie-	6 wzią	7 y	8 no-	9 Mi-	10 Pa-	11 Wes	12 za-	13 od
4a\	gło-	sie	-sli	-sma-	-wa-	mu-	mle-	-wi-	-ku-	-niąt-	wko-	-ba-	Cie-
4b\	-wie	nie	po-	-kuy	-ią	-si	-ka	-na	-ło	-ko	-szu	-wi	-bie
=14	=14	=14	=14	=14	=14	=14	=14	=14	=14	=14	=14	=14	=14
4cc\	na	o-	-stra-	na-	spie-	wziąc	puł	no-	mi-	Pa-	wes	za-	od
2a\	gło-	-ba-	-da-	-sma-	-wa-	mu-	dzba-	-wi-	-ku-	-niąt-	wko-	-ba-	Cie-
=15	=15	=15	=15	=15	=15	=15	=15	=15	=15	=15	=15	=15	=15
2.g/	-wie	-lił	-łem	-rui	-ią	-si	-na	-na	-ło	-ko	-szu	-wi	-bie
==:|!	==:|!	==:|!	==:|!	==:|!	==:|!	==:|!	==:|!	==:|!	==:|!	==:|!	==:|!	==:|!	==:|!
*-	*-	*-	*-	*-	*-	*-	*-	*-	*-	*-	*-	*-	*-
!!!ENC: Mateusz Solarz
!!!END: 2021-01-05
!!!ENC: Leszek Kubiak
!!!END: 2021-12-30
!!!YEC: Copyright 2022 Narodowy Instytut Fryderyka Chopina (https://polishscores.org)
!!!YEM: License CC-BY-4.0 (https://creativecommons.org/licenses/by/4.0)
